X: 1
T: A Pride Of Ignorance
M: 6/8
L: 1/8
R: jig
K: Emin
|: ^D |
E2 e dBA | GEF G2 A | BcB BAG | FDF AFD |
E2 e dBA | GEF G2 A | BcB AGF | GE^D E2 :|
|: ^d |
eBe eBe | eBe g2 a | bc'b bag |
[1 fdf agf | eBe eBe | eBe g2 a | bc'b agf | ge^d e2 :|
[2 fdB AGF | E^DE GFG | B^AB e2 f | gdB AGF | DGF E2 ||
